X:180
T:Westering Home
S:Too many Christmas parties
Z:Nigel Gatherer
M:6/8
L:1/8
K:G
F/E/|D>ED DB,D|G2 A B3|c>BA BAG|E2 D D3|D>ED DB,D|G2 A B3|
d>BG B2 A|G3 G2::B/c/|d>BG GAB|A>BA D3|DGG GAB|c>Bc A3|
d>BG GAB|A>BA D2 c|B2 G B2 A|G3 G2:|
<end>
<start>
